assets/images/icon-snapchat-red.svg

<svg width="20" height="19" viewBox="0 0 20 19" fill="none" xmlns="http://www.w3.org/2000/svg">
<path d="M10.0001 0C4.00011 0 4.00011 6 4.00011 6V7C4.00011 7 3.97711 6.999 3.93711 6.999C3.59711 6.999 2.00011 7.069 2.00011 8.395C2.00011 9.94 3.69711 10 3.96511 10C3.98811 10 4.00011 10 4.00011 10C4.00011 11 2.34811 12.171 1.26411 12.442C0.254111 12.834 0.0131113 13.503 0.000111299 14.01C-0.0078887 14.313 0.0661112 14.558 0.106111 14.653C0.483111 15.538 1.60311 15.995 2.70011 15.995C2.73811 17.434 3.77611 18 4.47111 18C5.26511 18 6.10511 17.612 6.10511 17.612C6.14611 17.646 7.42511 19 10.0001 19C12.5751 19 13.8541 17.646 13.8961 17.612C13.8961 17.612 14.7351 18 15.5301 18C16.2251 18 17.2621 17.434 17.3001 15.995C18.3971 15.995 19.5171 15.538 19.8941 14.653C19.9341 14.558 20.0081 14.313 20.0001 14.01C19.9871 13.503 19.7461 12.834 18.7361 12.442C17.6521 12.171 16.0001 11 16.0001 10C16.0001 10 16.0121 10 16.0351 10C16.3031 10 18.0001 9.94 18.0001 8.395C18.0001 7.069 16.4031 6.999 16.0631 6.999C16.0231 6.999 16.0001 7 16.0001 7V6C16.0001 6 16.0001 0 10.0001 0Z" fill="#C31218"/>
</svg>

<svg width="20" height="19" fill="none" xmlns="http://www.w3.org/2000/svg"><path d="M10 0C4 0 4 6 4 6v1l-.063-.001c-.34 0-1.937.07-1.937 1.396C2 9.94 3.697 10 3.965 10H4c0 1-1.652 2.171-2.736 2.442C.254 12.834.014 13.503 0 14.01a1.67 1.67 0 0 0 .106.643c.377.885 1.497 1.342 2.594 1.342C2.738 17.434 3.776 18 4.471 18c.794 0 1.634-.388 1.634-.388C6.146 17.646 7.425 19 10 19s3.854-1.354 3.896-1.388c0 0 .84.388 1.634.388.695 0 1.732-.566 1.77-2.005 1.097 0 2.217-.457 2.594-1.342.04-.095.114-.34.106-.643-.013-.507-.254-1.176-1.264-1.568C17.652 12.171 16 11 16 10h.035C16.303 10 18 9.94 18 8.395c0-1.326-1.597-1.396-1.937-1.396L16 7V6s0-6-6-6z" fill="#C31218"/></svg>
